dist/img/stack/stack-17.svg

<svg width="110" height="110" viewBox="0 0 110 110" fill="none" xmlns="http://www.w3.org/2000/svg">
<path d="M72.0866 71.535C72.5381 67.7666 72.4027 67.2139 75.2047 67.8243L75.9161 67.8869C78.0705 67.9851 80.8888 67.5398 82.5446 66.7692C86.1088 65.1125 88.2223 62.3462 84.7077 63.0731C76.6909 64.7299 76.1398 62.0104 76.1398 62.0104C84.6052 49.4277 88.1439 33.4551 85.0894 29.5453C76.7581 18.8809 62.3369 23.9238 62.0956 24.0548L62.0188 24.069C60.4348 23.7397 58.662 23.543 56.6706 23.5108C53.0428 23.451 50.2899 24.4635 48.2018 26.0502C48.2018 26.0502 22.4751 15.4322 23.672 39.4034C23.9265 44.5027 30.9683 77.9893 39.367 67.8748C42.4367 64.1762 45.4033 61.049 45.4033 61.049C46.8763 62.0295 48.64 62.5295 50.4897 62.3499L50.6326 62.2278C50.5879 62.6869 50.6076 63.1362 50.6899 63.6679C48.5266 66.0897 49.1623 66.5149 44.8366 67.4068C40.4602 68.3104 43.0313 69.9191 44.7095 70.3395C46.7446 70.8493 51.4526 71.5715 54.6344 67.1103L54.5077 67.6193C55.3565 68.2996 55.2991 72.5084 55.4194 75.5155C55.5399 78.5227 55.7409 81.329 56.3528 82.9836C56.9647 84.6378 57.6867 88.8995 63.3716 87.6789C68.1229 86.659 71.7555 85.1911 72.0866 71.535Z" fill="#B7B7BE"/>
<path d="M72.0866 71.535C72.5381 67.7666 72.4027 67.2139 75.2047 67.8243L75.9161 67.8869C78.0705 67.9851 80.8888 67.5398 82.5445 66.7692C86.1088 65.1125 88.2223 62.3462 84.7077 63.0731C76.6909 64.7299 76.1398 62.0104 76.1398 62.0104C84.6052 49.4277 88.1439 33.4551 85.0894 29.5453C76.7581 18.8809 62.3369 23.9238 62.0956 24.0548L62.0188 24.069C60.4348 23.7397 58.662 23.543 56.6706 23.5108C53.0428 23.451 50.2899 24.4635 48.2018 26.0502C48.2018 26.0502 22.4751 15.4322 23.672 39.4034C23.9265 44.5027 30.9683 77.9893 39.367 67.8748C42.4367 64.1762 45.4033 61.049 45.4033 61.049C46.8763 62.0295 48.64 62.5295 50.4897 62.3499L50.6326 62.2278C50.5879 62.6869 50.6076 63.1362 50.6899 63.6679C48.5266 66.0897 49.1623 66.5149 44.8366 67.4068C40.4602 68.3104 43.0313 69.9191 44.7095 70.3395C46.7446 70.8493 51.4526 71.5715 54.6344 67.1103L54.5077 67.6193C55.3565 68.2996 55.2991 72.5084 55.4194 75.5155C55.5399 78.5227 55.7409 81.329 56.3528 82.9836C56.9647 84.6378 57.6867 88.8995 63.3716 87.679C68.1229 86.659 71.7555 85.1911 72.0866 71.535Z" stroke="#B7B7BE" stroke-width="5.07924"/>
<path d="M84.7094 63.073C76.6918 64.7298 76.1406 62.0103 76.1406 62.0103C84.6059 49.4268 88.1446 33.4538 85.0907 29.5446C76.7594 18.8808 62.3377 23.9241 62.0969 24.055L62.0195 24.0689C60.4355 23.7395 58.6628 23.5432 56.6704 23.5107C53.0426 23.4511 50.2907 24.4634 48.2026 26.0498C48.2026 26.0498 22.4754 15.4323 23.6719 39.4033C23.9265 44.5029 30.9681 77.9896 39.3672 67.875C42.437 64.1765 45.4031 61.0493 45.4031 61.0493C46.8762 62.0297 48.64 62.5298 50.4888 62.3502L50.6324 62.228C50.5878 62.6872 50.6082 63.1364 50.69 63.6681C48.5263 66.0899 49.1621 66.5151 44.8367 67.407C40.46 68.3106 43.0312 69.9193 44.7099 70.3397C46.745 70.8495 51.4531 71.5718 54.6344 67.1105L54.5075 67.6196C55.3553 68.2997 55.9506 72.0443 55.8508 75.4386C55.7511 78.8331 55.6845 81.1635 56.3524 82.9838C57.0204 84.8041 57.6862 88.8997 63.3722 87.6791C68.1234 86.6592 70.5855 84.0159 70.9281 79.6069C71.1711 76.4724 71.7212 76.9357 71.7559 74.1333L72.1971 72.8066C72.7059 68.5574 72.2779 67.1867 75.2051 67.8242L75.9165 67.8868C78.0709 67.985 80.8907 67.5397 82.5456 66.7691C86.1093 65.1124 88.2231 62.3461 84.7094 63.073Z" fill="#B7B7BE"/>
<path d="M54.9792 65.5073C54.7585 73.4137 55.0346 81.3752 55.8069 83.3101C56.5797 85.2451 58.2333 89.0086 63.9199 87.7882C68.6706 86.7678 70.3992 84.7934 71.1492 80.435C71.7016 77.2285 72.7667 68.3231 72.9033 66.4986" stroke="#F4F4F4" stroke-width="1.69308" stroke-linecap="round" stroke-linejoin="round"/>
<path d="M48.1629 25.8726C48.1629 25.8726 22.4182 15.3316 23.6151 39.3026C23.8696 44.4023 30.9118 77.8899 39.3106 67.7749C42.3798 64.0759 45.1555 61.1748 45.1555 61.1748" stroke="#F4F4F4" stroke-width="1.69308" stroke-linecap="round" stroke-linejoin="round"/>
<path d="M62.07 23.9482C61.1788 24.2281 76.3907 18.3773 85.0358 29.4436C88.0895 33.3531 84.5508 49.326 76.0857 61.9099" stroke="#F4F4F4" stroke-width="1.69308" stroke-linecap="round" stroke-linejoin="round"/>
<path d="M76.084 61.9102C76.084 61.9102 76.6356 64.6304 84.6534 62.9725C88.1664 62.2457 86.0522 65.0122 82.4893 66.6698C79.5653 68.0292 73.0099 68.3776 72.9028 66.4991C72.6271 61.6522 76.3529 63.1247 76.084 61.9102ZM76.084 61.9102C75.8409 60.8165 74.1748 59.743 73.0726 57.0661C72.1104 54.7295 59.8759 36.8116 76.4655 39.4727C77.0733 39.3467 72.1388 23.6647 56.6132 23.4097C41.0911 23.1547 41.6003 42.5325 41.6003 42.5325" stroke="#F4F4F4" stroke-width="1.69308" stroke-linecap="round" stroke-linejoin="bevel"/>
<path d="M50.6327 63.5682C48.4686 65.9898 49.1051 66.415 44.7794 67.3073C40.4028 68.211 42.9742 69.8194 44.6524 70.2397C46.6875 70.7498 51.3956 71.472 54.577 67.0096C55.5457 65.651 54.5712 63.4831 53.2404 62.9305C52.5975 62.6637 51.7378 62.3292 50.6327 63.5682Z" stroke="#F4F4F4" stroke-width="1.69308" stroke-linecap="round" stroke-linejoin="round"/>
<path d="M50.4927 63.5252C50.2746 62.1015 50.9597 60.4071 51.6938 58.425C52.7971 55.4509 55.3427 52.4763 53.3063 43.0422C51.7885 36.0119 41.6078 41.5791 41.6014 42.5324C41.5952 43.4853 42.0619 47.364 41.4314 51.8809C40.6086 57.7749 45.1751 62.7598 50.4335 62.2498" stroke="#F4F4F4" stroke-width="1.69308" stroke-linecap="round" stroke-linejoin="round"/>
<path d="M48.0692 42.3894C48.0233 42.715 48.6642 43.5838 49.4999 43.6998C50.3342 43.8164 51.0482 43.1375 51.0935 42.8123C51.1388 42.4867 50.4986 42.1281 49.6626 42.0115C48.8279 41.8947 48.1134 42.0646 48.0692 42.3894Z" fill="#F4F4F4" stroke="#F4F4F4" stroke-width="0.564355"/>
<path d="M73.4804 41.7248C73.5257 42.0504 72.8856 42.9192 72.0497 43.0352C71.2149 43.1518 70.5008 42.4728 70.455 42.1476C70.4109 41.8221 71.0512 41.4634 71.8862 41.3468C72.7212 41.2303 73.4351 41.3998 73.4804 41.7248Z" fill="#F4F4F4" stroke="#F4F4F4" stroke-width="0.282177"/>
<path d="M76.4652 39.4727C76.6028 42.0266 75.9162 43.766 75.8296 46.4846C75.7015 50.4363 77.7102 54.9592 74.6835 59.4876" stroke="#F4F4F4" stroke-width="1.69308" stroke-linecap="round" stroke-linejoin="round"/>
</svg>

<svg width="110" height="110" viewBox="0 0 110 110" fill="none" xmlns="http://www.w3.org/2000/svg"><path d="M72.087 71.535c.451-3.768.316-4.321 3.118-3.71l.711.062c2.154.098 4.973-.347 6.629-1.118 3.564-1.657 5.677-4.423 2.163-3.696-8.017 1.657-8.568-1.063-8.568-1.063 8.465-12.582 12.004-28.555 8.95-32.465-8.332-10.664-22.753-5.621-22.994-5.49l-.077.014c-1.584-.33-3.357-.526-5.348-.558-3.628-.06-6.381.953-8.47 2.54 0 0-25.726-10.619-24.529 13.352.255 5.1 7.296 38.586 15.695 28.472a155.172 155.172 0 016.036-6.826c1.473.98 3.237 1.48 5.087 1.3l.143-.121c-.045.459-.025.908.057 1.44-2.163 2.422-1.528 2.847-5.853 3.739-4.377.903-1.806 2.512-.128 2.933 2.036.51 6.744 1.231 9.925-3.23l-.126.51c.848.68.791 4.888.911 7.895.12 3.008.322 5.814.934 7.469.612 1.654 1.334 5.916 7.019 4.695 4.75-1.02 8.383-2.488 8.715-16.144z" fill="#B7B7BE"/><path d="M72.087 71.535c.451-3.768.316-4.321 3.118-3.71l.711.062c2.154.098 4.973-.347 6.629-1.118 3.564-1.657 5.677-4.423 2.163-3.696-8.017 1.657-8.568-1.063-8.568-1.063 8.465-12.582 12.004-28.555 8.95-32.465-8.332-10.664-22.753-5.621-22.994-5.49l-.077.014c-1.584-.33-3.357-.526-5.348-.558-3.628-.06-6.381.953-8.47 2.54 0 0-25.726-10.619-24.529 13.352.255 5.1 7.296 38.586 15.695 28.472a155.172 155.172 0 016.036-6.826c1.473.98 3.237 1.48 5.087 1.3l.143-.121c-.045.459-.025.908.057 1.44-2.163 2.422-1.528 2.847-5.853 3.739-4.377.903-1.806 2.512-.128 2.933 2.036.51 6.744 1.231 9.925-3.23l-.126.51c.848.68.791 4.888.911 7.895.12 3.008.322 5.814.934 7.469.612 1.654 1.334 5.916 7.019 4.695 4.75-1.02 8.383-2.488 8.715-16.144z" stroke="#B7B7BE" stroke-width="5.079"/><path d="M84.71 63.073c-8.018 1.657-8.57-1.063-8.57-1.063 8.466-12.583 12.005-28.556 8.95-32.465-8.33-10.664-22.752-5.62-22.993-5.49l-.078.014c-1.584-.33-3.356-.526-5.349-.558-3.627-.06-6.38.952-8.467 2.539 0 0-25.728-10.618-24.531 13.353.255 5.1 7.296 38.587 15.695 28.472a155.866 155.866 0 016.036-6.826c1.473.98 3.237 1.48 5.086 1.301l.143-.122c-.044.46-.024.908.058 1.44-2.164 2.422-1.528 2.847-5.853 3.739-4.377.904-1.806 2.512-.127 2.933 2.035.51 6.743 1.232 9.924-3.23l-.127.51c.848.68 1.444 4.424 1.344 7.819-.1 3.394-.166 5.725.501 7.545.668 1.82 1.334 5.916 7.02 4.695 4.751-1.02 7.213-3.663 7.556-8.072.243-3.135.793-2.671.828-5.474l.441-1.326c.509-4.25.08-5.62 3.008-4.983l.712.063c2.154.098 4.974-.347 6.629-1.118 3.563-1.657 5.677-4.423 2.163-3.696z" fill="#B7B7BE"/><path d="M54.98 65.507c-.221 7.907.055 15.868.827 17.803.773 1.935 2.426 5.699 8.113 4.478 4.75-1.02 6.48-2.995 7.23-7.353.552-3.207 1.617-12.112 1.753-13.936m-24.74-40.626s-25.745-10.541-24.548 13.43c.255 5.1 7.297 38.587 15.696 28.472 3.069-3.7 5.845-6.6 5.845-6.6M62.07 23.948c-.891.28 14.32-5.57 22.966 5.496 3.053 3.91-.485 19.882-8.95 32.466" stroke="#F4F4F4" stroke-width="1.693" stroke-linecap="round" stroke-linejoin="round"/><path d="M76.084 61.91s.552 2.72 8.57 1.063c3.512-.727 1.398 2.04-2.165 3.697-2.924 1.36-9.48 1.708-9.586-.17-.276-4.848 3.45-3.375 3.181-4.59zm0 0c-.243-1.093-1.91-2.167-3.011-4.844-.963-2.337-13.197-20.254 3.393-17.593.607-.126-4.327-15.808-19.853-16.063C41.091 23.155 41.6 42.532 41.6 42.532" stroke="#F4F4F4" stroke-width="1.693" stroke-linecap="round" stroke-linejoin="bevel"/><path d="M50.633 63.568c-2.164 2.422-1.528 2.847-5.854 3.74-4.376.903-1.805 2.511-.127 2.932 2.035.51 6.744 1.232 9.925-3.23.969-1.359-.006-3.527-1.337-4.08-.643-.266-1.502-.6-2.607.638z" stroke="#F4F4F4" stroke-width="1.693" stroke-linecap="round" stroke-linejoin="round"/><path d="M50.493 63.525c-.218-1.423.467-3.118 1.2-5.1 1.104-2.974 3.65-5.949 1.613-15.383-1.517-7.03-11.698-1.463-11.705-.51-.006.953.46 4.832-.17 9.349-.822 5.894 3.744 10.879 9.003 10.369" stroke="#F4F4F4" stroke-width="1.693" stroke-linecap="round" stroke-linejoin="round"/><path d="M48.07 42.39c-.047.325.594 1.194 1.43 1.31.834.116 1.548-.563 1.593-.888.046-.325-.594-.684-1.43-.8-.835-.117-1.55.053-1.594.377z" fill="#F4F4F4" stroke="#F4F4F4" stroke-width=".564"/><path d="M73.48 41.725c.046.325-.594 1.194-1.43 1.31-.835.117-1.55-.562-1.595-.887-.044-.326.596-.685 1.431-.801.835-.117 1.55.053 1.594.378z" fill="#F4F4F4" stroke="#F4F4F4" stroke-width=".282"/><path d="M76.465 39.473c.138 2.554-.549 4.293-.635 7.012-.129 3.951 1.88 8.474-1.147 13.003" stroke="#F4F4F4" stroke-width="1.693" stroke-linecap="round" stroke-linejoin="round"/></svg>
